frontend/public/svg/hand gestures/scroll-left.svg

<svg width="113" height="151" viewBox="0 0 113 151" fill="none" xmlns="http://www.w3.org/2000/svg">
<g clip-path="url(#clip0)">
<path d="M33.2427 134.406C34.6348 136.802 36.9491 138.798 38.569 140.091C42.5049 143.138 46.8846 145.564 51.5554 147.285C56.3769 149.196 61.5163 150.177 66.7028 150.177C72.6237 150.104 78.4861 148.992 84.0216 146.89C87.9478 145.4 91.5846 143.238 94.7665 140.498C100.756 135.521 104.921 128.714 107.499 119.692C110.853 107.983 112.29 95.8095 111.754 83.6423C111.613 80.4538 110.672 77.2719 109.762 74.1956L109.631 73.748C109.188 72.2338 108.405 70.8404 107.342 69.6748C106.279 68.5085 104.963 67.6014 103.496 67.0219C98.9251 65.0818 94.695 65.6495 90.9184 68.7093C88.5884 64.3119 84.8473 61.4056 80.5962 60.7139C78.7998 60.4183 76.9594 60.5503 75.2241 61.0991C73.4881 61.648 71.9063 62.5983 70.6067 63.8728C65.8635 57.4125 62.2096 56.7391 54.8028 60.9935C54.7175 59.7412 54.6393 58.4961 54.5612 57.2556C54.3643 54.1472 54.1643 50.9338 53.8538 47.7978C53.2691 41.9039 52.5409 34.952 51.5807 28.0853C51.0285 24.4613 49.5809 21.0323 47.369 18.109C44.7568 14.5398 41.134 13.7391 37.1605 15.8538C35.9699 16.4707 34.9204 17.328 34.0781 18.3715C33.2359 19.4149 32.6193 20.6218 32.2675 21.9158C31.813 23.4452 31.5271 25.0197 31.4144 26.6112C31.3443 27.695 31.2711 28.7788 31.1945 29.8627C30.9044 34.0869 30.6037 38.4561 30.6096 42.7584C30.6234 51.5986 30.7604 60.2452 30.9055 69.3998C30.9593 72.8022 31.0115 76.2244 31.0618 79.6662L31.0061 79.617C30.6267 79.2744 30.2992 78.9784 29.9402 78.7112C23.3315 73.7835 16.2114 72.0068 8.77899 73.4264C7.12686 73.6935 5.57213 74.3834 4.26542 75.4289C2.95871 76.4744 1.94461 77.8403 1.32183 79.3938C0.716156 81.0471 0.542015 82.8278 0.8158 84.5671C1.08959 86.3064 1.80212 87.9466 2.8864 89.3341C3.93692 90.6494 5.12068 91.8524 6.41839 92.9249L6.96512 93.4106C11.7611 97.5915 15.7526 102.614 18.743 108.23C23.0066 116.384 27.7498 124.948 33.2427 134.406ZM36.8086 62.6218C36.7692 60.9541 36.69 59.2594 36.6119 57.6205C36.4806 54.7392 36.3393 51.7608 36.4115 48.8414C36.5993 41.2219 37.0431 33.4778 37.4723 25.989L37.4912 25.6549C37.629 23.2376 38.2271 20.6615 41.5757 19.8135C43.7351 21.4235 45.0483 23.7725 45.5871 26.9899C46.4758 32.2826 47.0601 37.0706 47.3745 41.6262C47.8339 48.2625 48.1771 55.0195 48.5112 61.5533C48.6753 64.7668 48.844 67.9801 49.0172 71.1929C49.098 72.6578 49.4767 74.6439 51.8179 74.9773C54.1 75.3055 54.9736 73.5045 55.6181 72.1932C55.9088 71.6024 56.1877 71.0026 56.4712 70.4013C57.2436 68.5721 58.2058 66.8289 59.342 65.1999C60.3331 63.8919 61.6215 63.2578 62.8679 63.4587C64.1471 63.6648 65.1946 64.7024 65.7413 66.3051C66.169 67.8029 66.3983 69.3499 66.4232 70.9074C66.4567 71.443 66.4889 71.9779 66.5368 72.5062C66.5571 72.8981 66.5427 73.2906 66.4928 73.6791C66.3806 74.3151 66.4147 74.9681 66.5926 75.5884C66.7895 76.078 67.0934 76.5178 67.4826 76.8741C67.8711 77.2312 68.3352 77.4964 68.8399 77.6506C69.3669 77.6611 69.89 77.5574 70.3737 77.3474C70.8568 77.138 71.29 76.8262 71.6418 76.4338C72.0047 75.9467 72.2292 75.3705 72.2916 74.766C72.3474 74.4431 72.4294 74.1261 72.5364 73.8163C72.7261 73.3234 72.9111 72.8318 73.0969 72.333C73.6961 70.6363 74.3892 68.9751 75.1729 67.3553C76.2992 65.135 78.5025 65.3286 79.7147 65.641C82.8593 66.4522 84.7456 68.3273 85.3212 71.2139C85.5936 72.8088 85.7478 74.4221 85.7806 76.0399C85.7983 76.4206 85.8161 76.8013 85.8364 77.1807C85.9309 78.9403 86.3149 80.6297 88.4618 81.0701C90.6086 81.5105 91.5689 79.8441 92.2075 78.7421L92.5658 78.1186C93.1966 76.9628 93.9002 75.849 94.6727 74.7824C96.2636 72.6821 98.0699 71.6615 99.7645 71.907C101.352 72.136 102.694 73.4927 103.542 75.7275C104.91 79.1195 105.722 82.7096 105.946 86.3602C106.25 94.7226 105.206 103.536 102.561 114.936C101.323 120.155 99.0839 125.084 95.967 129.449C92.3657 134.563 87.046 138.143 79.7049 140.39C66.9017 144.31 54.8955 142.162 42.9955 133.83C41.7217 132.984 40.6088 131.917 39.7089 130.68C37.6692 127.743 35.7875 124.699 34.0718 121.561C31.5475 116.882 29.0461 111.939 26.6354 106.869C22.3653 97.8848 17.0653 91.0261 10.4343 85.9034C10.3577 85.8476 10.2852 85.7859 10.2176 85.719C10.001 85.4892 9.77269 85.2635 9.54494 85.0377C8.28411 83.7906 7.09291 82.6092 7.71185 80.6402C8.38722 78.4835 10.3326 78.1337 12.3863 78.1337C12.4756 78.1337 12.5644 78.1337 12.6536 78.1337C19.9331 78.2308 25.3344 80.9671 28.7053 86.2663C29.2875 87.3106 29.7151 88.4342 29.9748 89.6012C30.064 89.9241 30.1527 90.2444 30.2459 90.5601C30.6745 91.9968 31.3827 93.4933 33.3891 93.7013C35.0299 93.87 36.4739 92.6263 36.999 90.6061C37.2414 89.5986 37.3464 88.5622 37.3108 87.5265C37.1572 78.4953 36.9917 70.3469 36.8086 62.6218Z" fill="black"/>
<path d="M61.5185 17.0247C62.8478 17.3709 64.2185 17.5321 65.5918 17.5038C70.7813 17.4336 76.057 17.3246 81.1587 17.219C83.2695 17.1753 85.3809 17.1326 87.4917 17.091C88.0279 17.0805 88.5635 17.0824 89.2192 17.0857H89.7101C89.1194 17.8622 88.5412 18.6097 87.982 19.3376C86.477 21.2942 85.0567 23.1444 83.6987 25.0084C82.7306 26.3394 82.3316 27.5596 82.5455 28.5369C82.6092 28.8307 82.7365 29.1071 82.9177 29.3469C83.0988 29.5867 83.3305 29.7842 83.5957 29.9257C84.0289 30.1854 84.5211 30.3282 85.0258 30.3398C86.3333 30.3398 87.2731 29.2352 88.0089 28.3708C91.2788 24.5299 94.7652 20.393 98.108 16.1682C99.3399 14.612 99.7829 13.5185 99.5906 12.5124C99.3937 11.4911 98.5346 10.609 96.7106 9.55294L94.9497 8.53758C91.3273 6.44914 87.5816 4.28979 83.9468 2.08712C81.7067 0.729815 80.1112 0.197527 79.0794 1.73664C78.1106 3.18058 78.767 4.70722 81.0287 6.27061C82.7857 7.48416 84.5546 8.61569 86.6037 9.9264C87.2974 10.3701 88.0168 10.8308 88.7696 11.3165H88.7407C88.3305 11.3572 88.0844 11.3822 87.835 11.3933C85.6914 11.4878 83.5471 11.5808 81.4028 11.6723C76.4508 11.8843 71.33 12.1041 66.2953 12.3509C64.7002 12.3861 63.1142 12.6064 61.5698 13.0072C61.1399 13.2013 60.7623 13.4946 60.468 13.8632C60.1737 14.2318 59.971 14.665 59.877 15.1272C59.7529 15.817 60.8418 16.8409 61.5185 17.0247Z" fill="black"/>
</g>
<defs>
<clipPath id="clip0">
<rect width="111.577" height="150.301" fill="white" transform="translate(0.544617 0.227539)"/>
</clipPath>
</defs>
</svg>

<svg xmlns="http://www.w3.org/2000/svg" width="113" height="151" fill="none" viewBox="0 0 113 151"><g fill="#000" clip-path="url(#a)"><path d="M33.243 134.406c1.392 2.396 3.706 4.392 5.326 5.685a48.7 48.7 0 0 0 12.986 7.194 41.1 41.1 0 0 0 15.148 2.892 50.5 50.5 0 0 0 17.319-3.287 36.1 36.1 0 0 0 10.744-6.392c5.99-4.977 10.155-11.784 12.733-20.806a112.9 112.9 0 0 0 4.255-36.05c-.141-3.188-1.082-6.37-1.992-9.446l-.131-.448a10.36 10.36 0 0 0-6.135-6.726c-4.57-1.94-8.801-1.373-12.578 1.687-2.33-4.397-6.07-7.303-10.322-7.995a11.58 11.58 0 0 0-9.99 3.159c-4.742-6.46-8.396-7.134-15.803-2.88q-.126-1.877-.242-3.737c-.197-3.109-.397-6.322-.707-9.458-.585-5.894-1.313-12.846-2.273-19.713a22.04 22.04 0 0 0-4.212-9.976c-2.612-3.57-6.235-4.37-10.208-2.255a9.7 9.7 0 0 0-4.894 6.062 22 22 0 0 0-.853 4.695 547 547 0 0 1-.22 3.252c-.29 4.224-.59 8.593-.584 12.895.013 8.84.15 17.487.296 26.642q.08 5.103.156 10.266l-.056-.049c-.38-.343-.707-.639-1.066-.906-6.609-4.927-13.729-6.704-21.161-5.285a9.7 9.7 0 0 0-7.457 5.968 10.36 10.36 0 0 0 1.564 9.94 24.5 24.5 0 0 0 3.532 3.59l.547.487a52.2 52.2 0 0 1 11.778 14.819c4.264 8.154 9.007 16.718 14.5 26.176m3.566-71.784c-.04-1.668-.119-3.363-.197-5.001-.131-2.882-.273-5.86-.2-8.78.187-7.62.631-15.363 1.06-22.852l.02-.334c.137-2.417.735-4.994 4.084-5.841 2.16 1.61 3.472 3.959 4.011 7.176.889 5.293 1.473 10.08 1.787 14.636.46 6.637.803 13.394 1.137 19.927q.246 4.82.506 9.64c.081 1.465.46 3.45 2.8 3.784 2.283.328 3.157-1.473 3.801-2.784.29-.59.57-1.19.853-1.792a28.4 28.4 0 0 1 2.871-5.201c.991-1.308 2.28-1.942 3.526-1.741 1.28.206 2.327 1.243 2.873 2.846a17.8 17.8 0 0 1 .682 4.602c.034.536.066 1.07.114 1.6q.03.588-.044 1.172a4.25 4.25 0 0 0 .1 1.91 3.53 3.53 0 0 0 2.247 2.062 3.67 3.67 0 0 0 2.802-1.217 3.37 3.37 0 0 0 .65-1.668q.083-.485.244-.95c.19-.493.375-.984.56-1.483a49 49 0 0 1 2.077-4.978c1.126-2.22 3.33-2.026 4.542-1.714 3.144.811 5.03 2.686 5.606 5.573.273 1.595.427 3.208.46 4.826q.025.57.055 1.14c.095 1.76.479 3.45 2.626 3.89s3.107-1.226 3.745-2.328l.359-.623a31 31 0 0 1 2.107-3.337c1.59-2.1 3.397-3.12 5.091-2.875 1.588.229 2.93 1.586 3.778 3.82a34 34 0 0 1 2.404 10.633c.304 8.363-.74 17.176-3.385 28.576a41.4 41.4 0 0 1-6.594 14.513c-3.601 5.114-8.921 8.694-16.262 10.941-12.803 3.92-24.81 1.772-36.71-6.56a12.9 12.9 0 0 1-3.286-3.15 101 101 0 0 1-5.637-9.119 325 325 0 0 1-7.437-14.692c-4.27-8.984-9.57-15.843-16.2-20.966a2 2 0 0 1-.217-.184 27 27 0 0 0-.673-.681c-1.26-1.247-2.452-2.429-1.833-4.398.675-2.156 2.62-2.506 4.674-2.506h.268c7.28.097 12.68 2.833 16.051 8.132a12.4 12.4 0 0 1 1.27 3.335q.133.485.27.96c.43 1.436 1.138 2.932 3.144 3.14 1.64.169 3.085-1.075 3.61-3.095.242-1.007.347-2.044.312-3.08-.154-9.03-.32-17.18-.502-24.904m24.71-45.597c1.329.346 2.7.507 4.073.479 5.19-.07 10.465-.18 15.567-.285q3.166-.066 6.333-.128c.536-.01 1.072-.009 1.727-.005h.491c-.59.776-1.169 1.524-1.728 2.252-1.505 1.956-2.925 3.806-4.283 5.67-.968 1.331-1.367 2.552-1.153 3.529a2.07 2.07 0 0 0 1.05 1.389c.433.26.925.402 1.43.414 1.307 0 2.247-1.105 2.983-1.97 3.27-3.84 6.756-7.977 10.099-12.202 1.232-1.556 1.675-2.65 1.483-3.656-.197-1.02-1.056-1.903-2.88-2.96L94.95 8.539c-3.623-2.089-7.368-4.248-11.003-6.45-2.24-1.358-3.836-1.89-4.868-.351-.968 1.444-.312 2.97 1.95 4.534 1.757 1.213 3.526 2.345 5.575 3.655q1.038.664 2.166 1.39h-.03c-.41.041-.656.066-.905.077q-3.216.142-6.432.28c-4.952.211-10.073.431-15.108.678a20.6 20.6 0 0 0-4.725.656 2.98 2.98 0 0 0-1.693 2.12c-.124.69.965 1.714 1.642 1.898"/></g><defs><clipPath id="a"><path fill="#fff" d="M.545.228h111.577v150.3H.545z"/></clipPath></defs></svg>
